X: 31283
T: COTILLION No. 23. JIM CROW SETT tune 3
C:
%R: reel, march
B: Elias Howe "The Musician's Companion" Part 3 1844 p.128 #3
S: http://imslp.org/wiki/The_Musician's_Companion_(Howe,_Elias)
Z: 2015 John Chambers <jc:trillian.mit.edu>
M: 2/4
L: 1/16
K: G
% - - - - - - - - - - - - - - - - - - - - - - - - - - - - -
D2 |\
G2G2 G2Bc | d2ed c2A2 | A2A2 ABcd | e2fe d2B2 |\
d2d2 g3d | d2ed d2B2 | G2G2 GABc |[1 d2ed d2 :|[2 B2cB z2 H|]
Bd |\
c2A2 A2Ac | B2G2 G2Bd | egfe dcBA | B2G2G2 Gd |\
c2A2 Aedc | B2G2 G2Bd | egfe dcBA | G2g2"^D.C."g2 :|
% - - - - - - - - - - Dance description - - - - - - - - - -
%%begintext align
%% First 2 ladies forward and back,
%% gentlemen the same,
%% balance 4.
%%endtext
% - - - - - - - - - - - - - - - - - - - - - - - - - - - - -
%%sep 1 1 300
